src/assets/img/bottom-filling/adv6.svg

<svg width="60" height="60" viewBox="0 0 60 60" fill="none" xmlns="http://www.w3.org/2000/svg">
<g clip-path="url(#clip0)">
<path d="M59.1436 26.0675L59.1345 26.0355C59.0405 25.6467 58.7522 25.3274 58.3646 25.1989C58.2207 25.1511 54.7834 24.0329 49.8757 24.3773C45.3578 24.6942 38.6794 26.3648 32.5194 32.5247C26.3594 38.6848 24.6889 45.3631 24.3723 49.8808C24.0282 54.7886 25.1464 58.2255 25.1942 58.3694C25.3107 58.7205 25.5862 58.9958 25.9372 59.1123C26.062 59.1538 28.6622 59.9999 32.5505 59.9999C33.1467 59.9999 33.7734 59.98 34.4258 59.9343C38.9435 59.6175 45.6217 57.947 51.7818 51.7872C62.6811 40.8876 59.8266 28.45 59.1436 26.0675ZM47.1088 27.0987C48.0352 26.9199 48.9787 26.7938 49.9393 26.7224C52.313 26.5462 54.3238 26.752 55.6932 26.9852C55.6347 27.0254 55.5787 27.0706 55.5268 27.1225L47.1088 35.5404V27.0987ZM44.7651 27.6774V37.8842L36.9101 45.7391V31.8875C36.9101 31.8492 36.908 31.8114 36.9044 31.774C39.3352 29.8921 41.9619 28.5237 44.7651 27.6774ZM26.7102 50.0446C27.1302 44.0533 29.6422 38.7163 34.1766 34.182C34.3059 34.0529 34.4359 33.9257 34.5664 33.7997V48.0307C34.5664 48.0475 34.5682 48.0637 34.5689 48.0802L26.9735 55.6756C26.7456 54.3313 26.547 52.3725 26.7102 50.0446ZM34.3621 57.589C32.003 57.7641 30.0022 57.5618 28.6333 57.3303L32.294 53.6696C32.298 53.6696 32.3018 53.6701 32.3057 53.6701H45.8167C42.3471 55.9657 38.5126 57.2808 34.3621 57.589ZM50.1245 50.1297C49.7085 50.5457 49.2855 50.9445 48.856 51.3265H34.6372L41.4387 44.525H54.4609C53.3837 46.3941 51.9698 48.2844 50.1245 50.1297ZM55.6495 42.1812H43.7824L57.1839 28.7797C57.2339 28.7296 57.2774 28.6757 57.3164 28.6197C57.8025 31.4471 58.1096 36.587 55.6495 42.1812Z" fill="#333333"/>
<path d="M27.4807 32.5247C21.3206 26.3647 14.6422 24.6941 10.1243 24.3772C5.21683 24.033 1.77938 25.1511 1.63547 25.1988C1.24781 25.3275 0.959533 25.6467 0.865549 26.0355L0.856408 26.0675C0.173441 28.4502 -2.68112 40.8877 8.21835 51.7872C11.6763 55.2452 15.6369 57.6488 19.9898 58.931C20.1003 58.9636 20.2119 58.9791 20.3216 58.9791C20.8278 58.9791 21.2948 58.6484 21.4452 58.1382C21.6281 57.5173 21.273 56.8657 20.6523 56.6829C16.6794 55.5125 13.0536 53.3077 9.87573 50.1299C7.10577 47.36 5.30495 44.4885 4.16179 41.7394H15.7758L21.4319 47.3956C21.6608 47.6245 21.9607 47.7388 22.2605 47.7388C22.5604 47.7388 22.8604 47.6245 23.0892 47.3956C23.5468 46.938 23.5468 46.196 23.0892 45.7382L21.7972 44.4465V30.829C23.2009 31.7847 24.5441 32.9029 25.8233 34.182C26.2809 34.6397 27.0229 34.6397 27.4807 34.182C27.9384 33.7244 27.9383 32.9824 27.4807 32.5247ZM9.96034 26.7153C10.4735 26.7513 10.9816 26.8038 11.4851 26.8705V34.1343L4.40625 27.0555C4.37929 27.0286 4.35105 27.0034 4.32222 26.9796C5.66683 26.7512 7.62866 26.5516 9.96034 26.7153ZM3.32965 39.3958V39.3957C2.00344 34.9283 2.27824 30.989 2.68055 28.6372C2.70222 28.663 2.72461 28.6885 2.74887 28.7129L13.4318 39.3959H3.32965V39.3958ZM19.4536 42.1028L13.8287 36.478V27.2985C15.7869 27.7591 17.6638 28.4653 19.4536 29.4139V42.1028Z" fill="#333333"/>
<path d="M22.1333 52.6877C19.8688 52.0205 17.7188 50.9512 15.7432 49.5095C15.2203 49.128 14.4873 49.2426 14.1057 49.7653C13.7242 50.2881 13.8388 51.0212 14.3615 51.4028C16.5553 53.0038 18.9472 54.1925 21.4708 54.9359C21.5813 54.9685 21.6929 54.9839 21.8026 54.9839C22.3088 54.9839 22.7758 54.6532 22.9262 54.143C23.1091 53.522 22.7541 52.8705 22.1333 52.6877Z" fill="#333333"/>
<path d="M12.9249 47.0888L12.9208 47.0847C12.4632 46.6273 11.7234 46.6293 11.2655 47.0868C10.8079 47.5444 10.81 48.2886 11.2676 48.7462C11.4965 48.975 11.7964 49.0894 12.0962 49.0894C12.3961 49.0894 12.6961 48.975 12.9249 48.7462C13.3825 48.2886 13.3825 47.5465 12.9249 47.0888Z" fill="#333333"/>
<path d="M15.0176 14.8826H8.67224V9.78502H13.0433C13.6906 9.78502 14.2152 9.26037 14.2152 8.61315C14.2152 7.96592 13.6906 7.44128 13.0433 7.44128H8.67224V2.34375H15.0175C15.6647 2.34375 16.1893 1.8191 16.1893 1.17187C16.1893 0.524647 15.6647 0 15.0175 0H7.50049C6.85326 0 6.32861 0.524647 6.32861 1.17187V16.0543C6.32861 16.7015 6.85326 17.2262 7.50049 17.2262H15.0176C15.6648 17.2262 16.1895 16.7015 16.1895 16.0543C16.1895 15.4071 15.6648 14.8826 15.0176 14.8826Z" fill="#333333"/>
<path d="M44.9995 0C40.2503 0 36.3865 3.86378 36.3865 8.61303C36.3865 13.3623 40.2503 17.2261 44.9995 17.2261C49.7488 17.2261 53.6125 13.3623 53.6125 8.61303C53.6125 3.86378 49.7488 0 44.9995 0ZM44.9995 14.8824C41.5426 14.8824 38.7301 12.0701 38.7301 8.61303C38.7301 5.15601 41.5425 2.34363 44.9995 2.34363C48.4565 2.34363 51.2689 5.15601 51.2689 8.61303C51.2689 12.0701 48.4564 14.8824 44.9995 14.8824Z" fill="#333333"/>
<path d="M31.8206 13.046C29.3763 15.4904 25.3987 15.4904 22.9544 13.046C20.51 10.6017 20.51 6.62428 22.9544 4.17987C25.3987 1.73547 29.3761 1.73547 31.8206 4.17987C32.2782 4.63749 33.0202 4.63749 33.4779 4.17987C33.9356 3.72226 33.9356 2.98023 33.4779 2.5225C30.1197 -0.835623 24.6555 -0.835623 21.2972 2.5225C17.939 5.88073 17.939 11.3451 21.2972 14.7032C22.9763 16.3824 25.1819 17.2219 27.3876 17.2219C29.5933 17.2219 31.7989 16.3822 33.4781 14.7033C33.9357 14.2457 33.9357 13.5036 33.4781 13.0459C33.0203 12.5884 32.2783 12.5884 31.8206 13.046Z" fill="#333333"/>
<path d="M30.0081 19.9639C29.3608 19.9639 28.8362 20.4885 28.8362 21.1357V24.4497C28.8362 25.0969 29.3608 25.6216 30.0081 25.6216C30.6553 25.6216 31.1799 25.0969 31.1799 24.4497V21.1357C31.1798 20.4885 30.6552 19.9639 30.0081 19.9639Z" fill="#333333"/>
<path d="M36.8466 23.1919C36.3889 22.7342 35.647 22.7343 35.1894 23.1919L32.7998 25.5813C32.3422 26.039 32.3421 26.781 32.7998 27.2386C33.0287 27.4675 33.3285 27.5818 33.6284 27.5818C33.9283 27.5818 34.2283 27.4674 34.4571 27.2386L36.8465 24.8492C37.3042 24.3914 37.3043 23.6494 36.8466 23.1919Z" fill="#333333"/>
<path d="M27.204 25.5468L24.8106 23.1533C24.3528 22.6955 23.6109 22.6958 23.1533 23.1533C22.6957 23.6109 22.6956 24.3529 23.1533 24.8105L25.5467 27.2041C25.7756 27.433 26.0755 27.5473 26.3754 27.5473C26.6753 27.5473 26.9753 27.4328 27.204 27.2041C27.6616 26.7465 27.6617 26.0044 27.204 25.5468Z" fill="#333333"/>
</g>
<defs>
<clipPath id="clip0">
<rect width="60" height="60" fill="white"/>
</clipPath>
</defs>
</svg>

<svg width="60" height="60" fill="none" xmlns="http://www.w3.org/2000/svg"><g clip-path="url(#clip0)" fill="#333"><path d="M59.144 26.067l-.01-.032a1.172 1.172 0 00-.77-.836c-.143-.048-3.58-1.166-8.488-.822-4.518.317-11.197 1.988-17.357 8.148s-7.83 12.838-8.147 17.356c-.344 4.908.774 8.344.822 8.488.117.352.392.627.743.743.125.042 2.725.888 6.613.888.597 0 1.223-.02 1.876-.066 4.517-.316 11.196-1.987 17.356-8.147 10.9-10.9 8.045-23.337 7.362-25.72zM47.109 27.1c.926-.18 1.87-.305 2.83-.377 2.374-.176 4.385.03 5.754.263-.058.04-.114.086-.166.137l-8.418 8.418V27.1zm-2.344.578v10.207L36.91 45.74V31.888a1.06 1.06 0 00-.006-.114c2.431-1.882 5.058-3.25 7.861-4.097zM26.71 50.045c.42-5.992 2.932-11.329 7.467-15.863.129-.13.259-.256.39-.382v14.23l.002.05-7.596 7.596a23.946 23.946 0 01-.263-5.631zm7.652 7.544a24.01 24.01 0 01-5.729-.259l3.661-3.66h13.522a23.648 23.648 0 01-11.454 3.919zm15.762-7.46c-.416.417-.839.816-1.268 1.198H34.637l6.802-6.802H54.46c-1.077 1.87-2.491 3.76-4.337 5.605zm5.526-7.948H43.782L57.184 28.78c.05-.05.093-.104.132-.16.486 2.827.794 7.967-1.666 13.561z"/><path d="M27.48 32.525c-6.16-6.16-12.838-7.83-17.356-8.148-4.907-.344-8.345.774-8.489.822a1.172 1.172 0 00-.77.836l-.009.032c-.683 2.383-3.537 14.82 7.362 25.72 3.458 3.458 7.419 5.862 11.772 7.144a1.171 1.171 0 10.662-2.248c-3.973-1.17-7.598-3.375-10.776-6.553-2.77-2.77-4.571-5.642-5.714-8.39h11.614l5.656 5.656a1.168 1.168 0 001.657 0c.458-.458.458-1.2 0-1.658l-1.292-1.291V30.828a27.938 27.938 0 014.026 3.353 1.172 1.172 0 101.658-1.657zm-17.52-5.81c.513.036 1.022.089 1.525.155v7.264l-7.079-7.079a1.203 1.203 0 00-.084-.075 23.935 23.935 0 015.638-.265zm-6.63 12.68a23.97 23.97 0 01-.65-10.758c.022.026.045.052.069.076l10.683 10.683H3.33zm16.124 2.708l-5.625-5.625v-9.18a23.424 23.424 0 015.625 2.116v12.689z"/><path d="M22.133 52.688a20.804 20.804 0 01-6.39-3.178 1.172 1.172 0 00-1.382 1.893 23.136 23.136 0 007.11 3.533 1.171 1.171 0 10.662-2.248zm-9.208-5.599l-.004-.004a1.17 1.17 0 00-1.655.002 1.175 1.175 0 001.659 1.66c.457-.458.457-1.2 0-1.658zm2.093-32.206H8.672V9.785h4.371a1.172 1.172 0 100-2.344h-4.37V2.344h6.345a1.172 1.172 0 000-2.344H7.5a1.17 1.17 0 00-1.17 1.172v14.882a1.17 1.17 0 001.171 1.172h7.518a1.172 1.172 0 000-2.343zM45 0c-4.75 0-8.614 3.864-8.614 8.613 0 4.75 3.864 8.613 8.613 8.613 4.75 0 8.613-3.864 8.613-8.613C53.612 3.863 49.75 0 45 0zm0 14.882a6.276 6.276 0 01-6.27-6.269A6.276 6.276 0 0145 2.343a6.276 6.276 0 016.269 6.27 6.276 6.276 0 01-6.27 6.27zm-13.18-1.836a6.276 6.276 0 01-8.866 0 6.276 6.276 0 010-8.866 6.276 6.276 0 018.867 0 1.172 1.172 0 001.657-1.657c-3.358-3.359-8.823-3.359-12.18 0-3.359 3.358-3.359 8.822 0 12.18a8.586 8.586 0 006.09 2.519c2.205 0 4.41-.84 6.09-2.519a1.172 1.172 0 00-1.657-1.657zm-1.812 6.918c-.647 0-1.172.524-1.172 1.172v3.314a1.172 1.172 0 102.344 0v-3.314c0-.648-.525-1.172-1.172-1.172zm6.839 3.228a1.172 1.172 0 00-1.658 0l-2.39 2.39a1.172 1.172 0 001.658 1.657l2.39-2.39c.457-.458.457-1.2 0-1.657zm-9.643 2.355l-2.393-2.394a1.172 1.172 0 00-1.658 1.658l2.394 2.393a1.168 1.168 0 001.657 0 1.17 1.17 0 000-1.657z"/></g><defs><clipPath id="clip0"><path fill="#fff" d="M0 0h60v60H0z"/></clipPath></defs></svg>
